assets/images/clients/partner1.svg

<svg width="45" height="45" viewBox="0 0 45 45" fill="none" xmlns="http://www.w3.org/2000/svg">
<g clip-path="url(#clip0_1307_7369)">
<path d="M20.9419 8.52525C22.1074 8.33963 23.5991 8.32837 24.1706 8.49262C25.191 8.7885 25.5499 9.65363 24.9671 10.4096C24.6071 10.8709 24.1031 11.1218 22.7801 11.4953C20.3243 12.1736 18.531 13.1602 17.0055 14.661C15.885 15.7455 15.2674 16.776 15.0885 17.838C15.0322 18.1339 15.0322 21.8374 15.0885 26.0561C15.156 31.3481 15.1448 33.8242 15.066 34.0211C14.8748 34.5139 14.517 34.4149 13.5191 33.6375C10.7044 31.4021 8.87625 28.4659 8.13712 24.9604C7.88962 23.7544 7.88963 21.0814 8.14838 19.9856C8.87625 16.7974 10.7494 13.806 13.2379 11.8564C15.5374 10.0485 18.0034 8.98425 20.9419 8.52525ZM30.3716 11.1881C30.4841 11.0779 30.6292 10.9913 30.708 10.9913C30.9431 10.9913 31.9185 11.8013 32.8264 12.7766C36.0889 16.2607 37.2555 19.701 36.6289 23.9524C36.2576 26.4836 35.6299 28.368 34.5533 30.2524C33.9255 31.3256 32.2099 33.0244 30.8081 33.9548C28.9699 35.1821 26.6378 36.1901 24.7646 36.5625C23.8005 36.7605 22.0961 36.7931 21.7721 36.6289C21.4909 36.4747 21.4909 36.0146 21.7834 35.5658C22.0624 35.1158 22.1524 35.073 23.7443 34.6669C25.6061 34.1966 26.3239 33.8344 27.1642 32.9254C28.3984 31.6215 29.7214 29.43 30.1354 28.0384C30.3154 27.4579 30.3154 26.7671 30.2366 19.7662C30.1804 15.57 30.1466 11.9768 30.1579 11.7686C30.1804 11.5605 30.2704 11.3085 30.3716 11.1881ZM22.1524 12.5359C22.4111 12.3716 22.7014 12.3052 23.184 12.3052C24.0581 12.3052 24.5182 12.5685 24.8434 13.2694C25.1134 13.8724 25.1134 13.8836 25.2472 22.6046C25.2922 25.7051 25.371 28.3343 25.4272 28.4434C25.5386 28.7066 26.0989 28.9699 26.3464 28.8821C26.6828 28.7618 27.747 27.8089 28.4535 26.9977C28.8247 26.5702 29.1825 26.2204 29.2612 26.2204C29.52 26.2204 29.43 27.0304 29.0588 28.0496C28.5772 29.3974 27.8257 30.7665 27.1305 31.6001C25.74 33.2426 23.319 34.1415 22.2311 33.4181C21.3784 32.8703 21.3007 32.4214 21.0982 27.2936C20.9632 23.7004 21.042 16.2934 21.222 14.6171C21.3458 13.5439 21.6585 12.8419 22.1524 12.5359ZM16.8716 22.3414C18.4297 21.5741 20.2579 22.3965 20.6606 24.0289C20.8969 24.9817 20.5706 25.902 19.764 26.5714C18.9675 27.2498 17.9584 27.3814 17.0168 26.9426C16.7141 26.8009 16.3215 26.5489 16.1539 26.3734C14.976 25.1471 15.3461 23.0861 16.8716 22.3414ZM22.5 40.5C12.5584 40.5 4.5 32.4416 4.5 22.5C4.5 12.5584 12.5584 4.5 22.5 4.5C32.4416 4.5 40.5 12.5584 40.5 22.5C40.5 32.4416 32.4416 40.5 22.5 40.5ZM22.5 38.7C31.4471 38.7 38.7 31.4471 38.7 22.5C38.7 13.5529 31.4471 6.3 22.5 6.3C13.5529 6.3 6.3 13.5529 6.3 22.5C6.3 31.4471 13.5529 38.7 22.5 38.7Z" fill="#5A5A5A"/>
</g>
<defs>
<clipPath id="clip0_1307_7369">
<rect width="45" height="45" fill="white"/>
</clipPath>
</defs>
</svg>

<svg width="45" height="45" viewBox="0 0 45 45" fill="none" xmlns="http://www.w3.org/2000/svg"><g clip-path="url(#a)"><path d="M20.942 8.525c1.165-.185 2.657-.197 3.229-.032 1.02.296 1.379 1.16.796 1.917-.36.46-.864.712-2.187 1.085-2.456.679-4.249 1.665-5.774 3.166-1.121 1.085-1.739 2.115-1.918 3.177-.056.296-.056 4 0 8.218.068 5.292.057 7.768-.022 7.965-.191.493-.549.394-1.547-.383-2.815-2.236-4.643-5.172-5.382-8.678-.247-1.206-.247-3.879.011-4.974.728-3.189 2.601-6.18 5.09-8.13 2.3-1.807 4.765-2.872 7.704-3.33Zm9.43 2.663c.112-.11.257-.197.336-.197.235 0 1.21.81 2.118 1.786 3.263 3.484 4.43 6.924 3.803 11.175-.371 2.532-1 4.416-2.076 6.3-.627 1.074-2.343 2.772-3.745 3.703-1.838 1.227-4.17 2.235-6.043 2.608-.965.197-2.669.23-2.993.066-.281-.154-.281-.614.011-1.063.28-.45.37-.493 1.961-.9 1.862-.47 2.58-.832 3.42-1.74 1.234-1.305 2.557-3.496 2.971-4.888.18-.58.18-1.27.102-8.272-.057-4.196-.09-7.79-.08-7.997.023-.209.113-.46.215-.58Zm-8.22 1.348c.26-.164.55-.23 1.032-.23.874 0 1.334.263 1.66.963.27.603.27.615.403 9.336.045 3.1.124 5.73.18 5.838.112.264.672.527.92.44.336-.121 1.4-1.074 2.106-1.885.372-.428.73-.778.808-.778.259 0 .169.81-.202 1.83-.482 1.347-1.233 2.716-1.928 3.55-1.391 1.643-3.812 2.541-4.9 1.818-.853-.548-.93-.997-1.133-6.124-.135-3.594-.056-11 .124-12.677.124-1.073.436-1.775.93-2.081Zm-5.28 9.805c1.558-.767 3.386.055 3.789 1.688.236.953-.09 1.873-.897 2.542-.796.679-1.806.81-2.747.372-.303-.142-.695-.394-.863-.57-1.178-1.226-.808-3.287.718-4.032ZM22.5 40.5c-9.942 0-18-8.058-18-18s8.058-18 18-18 18 8.058 18 18-8.058 18-18 18Zm0-1.8c8.947 0 16.2-7.253 16.2-16.2S31.447 6.3 22.5 6.3 6.3 13.553 6.3 22.5s7.253 16.2 16.2 16.2Z" fill="#5A5A5A"/></g><defs><clipPath id="a"><path fill="#fff" d="M0 0h45v45H0z"/></clipPath></defs></svg>
